packages/ui/public/icons/paid-content-icon.svg

<svg width="29" height="28" viewBox="0 0 29 31" fill="none" xmlns="http://www.w3.org/2000/svg">
  <path opacity="0.12" d="M8.20294 14.453C7.94351 14.1935 7.8138 14.0638 7.72104 13.9124C7.63879 13.7782 7.57819 13.6319 7.54144 13.4789C7.5 13.3062 7.5 13.1228 7.5 12.7559V9.4C7.5 8.55992 7.5 8.13988 7.66349 7.81901C7.8073 7.53677 8.03677 7.3073 8.31901 7.16349C8.63988 7 9.05992 7 9.9 7H13.2559C13.6228 7 13.8062 7 13.9789 7.04144C14.1319 7.07819 14.2782 7.13879 14.4124 7.22104C14.5638 7.3138 14.6935 7.44351 14.953 7.70294L20.7044 13.4544C21.5954 14.3454 22.041 14.791 22.2079 15.3047C22.3547 15.7566 22.3547 16.2434 22.2079 16.6952C22.041 17.209 21.5954 17.6546 20.7044 18.5456L19.0456 20.2044C18.1546 21.0954 17.709 21.541 17.1952 21.7079C16.7434 21.8547 16.2566 21.8547 15.8047 21.7079C15.291 21.541 14.8454 21.0954 13.9544 20.2044L8.20294 14.453Z" fill="#BF7AF0" />
  <path d="M12 11.5H12.0075H12ZM7.5 9.4V12.7559C7.5 13.1228 7.5 13.3062 7.54144 13.4789C7.57819 13.6319 7.63879 13.7782 7.72104 13.9124C7.8138 14.0638 7.94351 14.1935 8.20294 14.453L13.9544 20.2044C14.8454 21.0954 15.291 21.541 15.8047 21.7079C16.2566 21.8547 16.7434 21.8547 17.1952 21.7079C17.709 21.541 18.1546 21.0954 19.0456 20.2044L20.7044 18.5456C21.5954 17.6546 22.041 17.209 22.2079 16.6952C22.3547 16.2434 22.3547 15.7566 22.2079 15.3047C22.041 14.791 21.5954 14.3454 20.7044 13.4544L14.953 7.70294C14.6935 7.44351 14.5638 7.3138 14.4124 7.22104C14.2782 7.13879 14.1319 7.07819 13.9789 7.04144C13.8062 7 13.6228 7 13.2559 7H9.9C9.05992 7 8.63988 7 8.31901 7.16349C8.03677 7.3073 7.8073 7.53677 7.66349 7.81901C7.5 8.13988 7.5 8.55992 7.5 9.4ZM12.375 11.5C12.375 11.7071 12.2071 11.875 12 11.875C11.7929 11.875 11.625 11.7071 11.625 11.5C11.625 11.2929 11.7929 11.125 12 11.125C12.2071 11.125 12.375 11.2929 12.375 11.5Z" stroke="#BF7AF0" stroke-width="1.5" stroke-linecap="round" stroke-linejoin="round" />
</svg>

<svg width="29" height="28" viewBox="0 0 29 31" fill="none" xmlns="http://www.w3.org/2000/svg"><path opacity=".12" d="M8.203 14.453c-.26-.26-.39-.39-.482-.54a1.5 1.5 0 0 1-.18-.434c-.041-.173-.041-.356-.041-.723V9.4c0-.84 0-1.26.163-1.581a1.5 1.5 0 0 1 .656-.656C8.639 7 9.059 7 9.9 7h3.356c.367 0 .55 0 .723.041.153.037.3.098.433.18.152.093.281.223.541.482l5.751 5.751c.891.891 1.337 1.337 1.504 1.85a2.25 2.25 0 0 1 0 1.391c-.167.514-.613.96-1.504 1.85l-1.658 1.66c-.891.89-1.337 1.336-1.85 1.503a2.25 2.25 0 0 1-1.391 0c-.514-.167-.96-.613-1.85-1.504l-5.752-5.751Z" fill="#BF7AF0"/><path d="M12 11.5h.008H12ZM7.5 9.4v3.356c0 .367 0 .55.041.723.037.153.098.3.18.433.093.152.223.281.482.541l5.751 5.751c.891.891 1.337 1.337 1.85 1.504a2.25 2.25 0 0 0 1.391 0c.514-.167.96-.613 1.85-1.504l1.66-1.658c.89-.891 1.336-1.337 1.503-1.85a2.25 2.25 0 0 0 0-1.391c-.167-.514-.613-.96-1.504-1.85l-5.751-5.752c-.26-.26-.39-.39-.54-.482a1.5 1.5 0 0 0-.434-.18C13.806 7 13.623 7 13.256 7H9.9c-.84 0-1.26 0-1.581.163a1.5 1.5 0 0 0-.656.656c-.163.32-.163.74-.163 1.581Zm4.875 2.1a.375.375 0 1 1-.75 0 .375.375 0 0 1 .75 0Z" stroke="#BF7AF0" stroke-width="1.5" stroke-linecap="round" stroke-linejoin="round"/></svg>
